;FLAVOR:RepRap
;TIME:1766
;Filament used: 2.09331m
;Layer height: 0.2
;Generated with Cura_SteamEngine master
M190 S60
M104 S205
M109 S205
G21 ;metric values
G90 ;absolute positioning
M82 ;set extruder to absolute mode
M107 ;start with the fan off
G28 X0 Y0 ;move X/Y to min endstops
G1 F200 E-1 ;retract 1mm of feed stock
G29
G92 E0 ;zero the extruded length
G1 F200 E3 ;extrude 3mm of feed stock
G92 E0 ;zero the extruded length again
G1 F9000
M117 Printing...
;LAYER_COUNT:30
;LAYER:0
M107
G0 F3600 X0.603 Y25.944 Z0.3
;TYPE:SKIRT
G1 F2400 X-2.979 Y25.987 E0.15638
G1 X-5.654 Y26.107 E0.27327
G1 X-11.139 Y26.57 E0.51356
G1 X-14.316 Y26.92 E0.65309
G1 X-14.872 Y26.941 E0.67738
G1 X-15.425 Y26.882 E0.70166
G1 X-15.964 Y26.745 E0.72594
G1 X-16.478 Y26.531 E0.75024
G1 X-16.956 Y26.247 E0.77451
G1 X-17.389 Y25.896 E0.79885
G1 X-17.766 Y25.488 E0.8231
G1 X-18.105 Y24.99 E0.84939
G1 X-19.051 Y23.334 E0.93265
G1 X-21.936 Y18.688 E1.17139
G1 X-25.06 Y14.24 E1.40867
G1 X-28.435 Y9.97 E1.64626
G1 X-32.034 Y5.913 E1.88301
G1 X-36.712 Y1.237 E2.17175
G1 X-37.019 Y0.892 E2.19191
G1 X-37.752 Y-0.04 E2.24367
G1 X-38.081 Y-.533 E2.26954
G1 X-38.447 Y-1.182 E2.30207
G1 X-38.684 Y-1.681 E2.32619
G1 X-39.004 Y-2.504 E2.36473
G1 X-39.193 Y-3.153 E2.39424
G1 X-39.47 Y-4.547 E2.45629
G1 X-39.539 Y-5.099 E2.48057
G1 X-39.525 Y-5.682 E2.50603
G1 X-39.344 Y-7.521 E2.58669
G1 X-39.304 Y-7.812 E2.59952
G1 X-38.983 Y-9.638 E2.68045
G1 X-38.901 Y-10.001 E2.6967
G1 X-38.225 Y-12.442 E2.80727
G1 X-38.088 Y-12.849 E2.82601
G1 X-37.129 Y-15.242 E2.93855
G1 X-36.948 Y-15.631 E2.95728
G1 X-35.733 Y-17.899 E3.0696
G1 X-35.519 Y-18.252 E3.08762
G1 X-34.457 Y-19.81 E3.16993
G1 X-34.233 Y-20.106 E3.18614
G1 X-32.134 Y-22.628 E3.32938
G1 X-31.726 Y-23.049 E3.35497
G1 X-29.277 Y-25.219 E3.49781
G1 X-28.903 Y-25.512 E3.51855
G1 X-26.763 Y-26.984 E3.63193
G1 X-26.477 Y-27.163 E3.64666
G1 X-24.805 Y-28.11 E3.73055
G1 X-24.362 Y-28.324 E3.75202
G1 X-21.346 Y-29.558 E3.89428
G1 X-20.906 Y-29.709 E3.91458
G1 X-18.424 Y-30.391 E4.02695
G1 X-18.097 Y-30.465 E4.04159
G1 X-16.285 Y-30.798 E4.12201
G1 X-15.972 Y-30.843 E4.13582
G1 X-9.016 Y-31.542 E4.441
G1 X-8.774 Y-31.558 E4.45159
G1 X-.68 Y-31.862 E4.80517
G1 X-.42 Y-31.863 E4.81652
G1 X6.727 Y-31.651 E5.12865
G1 X6.975 Y-31.636 E5.1395
G1 X15.262 Y-30.857 E5.50286
G1 X15.613 Y-30.808 E5.51833
G1 X18.209 Y-30.321 E5.63363
G1 X18.714 Y-30.19 E5.6564
G1 X21.837 Y-29.155 E5.80003
G1 X22.184 Y-29.022 E5.81625
G1 X23.907 Y-28.261 E5.89848
G1 X24.272 Y-28.075 E5.91636
G1 X26.5 Y-26.794 E6.02855
G1 X26.859 Y-26.561 E6.04723
G1 X28.925 Y-25.048 E6.15902
G1 X29.315 Y-24.72 E6.18127
G1 X31.685 Y-22.45 E6.32453
G1 X31.949 Y-22.172 E6.34126
G1 X33.219 Y-20.688 E6.42653
G1 X33.47 Y-20.361 E6.44452
G1 X34.939 Y-18.221 E6.55784
G1 X35.161 Y-17.856 E6.57649
G1 X36.357 Y-15.62 E6.68718
G1 X36.537 Y-15.232 E6.70585
G1 X37.491 Y-12.849 E6.81791
G1 X37.633 Y-12.428 E6.8373
G1 X38.342 Y-9.827 E6.95499
G1 X38.437 Y-9.371 E6.97532
G1 X38.876 Y-6.38 E7.10729
G1 X38.916 Y-5.74 E7.13528
G1 X38.896 Y-4.729 E7.17943
G1 X38.845 Y-4.175 E7.20371
G1 X38.785 Y-3.882 E7.21677
G1 X38.507 Y-2.75 E7.26765
G1 X38.356 Y-2.27 E7.28962
G1 X38.239 Y-1.969 E7.30372
G1 X38.009 Y-1.481 E7.32727
G1 X37.303 Y-.219 E7.39039
G1 X36.935 Y0.324 E7.41903
G1 X36.493 Y0.871 E7.44973
G1 X36.221 Y1.174 E7.4675
G1 X33.636 Y3.763 E7.62721
G1 X29.946 Y7.795 E7.86581
G1 X26.498 Y12.018 E8.1038
G1 X23.311 Y16.408 E8.34062
G1 X20.362 Y20.995 E8.57867
G1 X18.095 Y24.957 E8.77794
G1 X17.785 Y25.419 E8.80223
G1 X17.412 Y25.832 E8.82652
G1 X16.983 Y26.187 E8.85083
G1 X16.509 Y26.477 E8.87509
G1 X15.997 Y26.696 E8.8994
G1 X15.459 Y26.839 E8.9237
G1 X14.907 Y26.904 E8.94796
G1 X14.371 Y26.891 E8.97137
G1 X6.773 Y26.18 E9.3045
G1 X3.277 Y25.997 E9.45732
G1 X0.603 Y25.944 E9.57408
G0 F3600 X0.606 Y25.593
G1 F2400 X-2.999 Y25.638 E9.73146
G1 X-5.672 Y25.757 E9.84826
G1 X-11.168 Y26.221 E10.08904
G1 X-14.354 Y26.572 E10.22896
G1 X-14.884 Y26.59 E10.25211
G1 X-15.412 Y26.528 E10.27532
G1 X-15.923 Y26.388 E10.29845
G1 X-16.408 Y26.173 E10.32161
G1 X-16.856 Y25.888 E10.34479
G1 X-17.255 Y25.538 E10.36796
G1 X-17.597 Y25.132 E10.39113
G1 X-17.801 Y24.817 E10.40751
G1 X-18.745 Y23.164 E10.49061
G1 X-21.647 Y18.492 E10.7307
G1 X-24.787 Y14.02 E10.96924
G1 X-28.163 Y9.75 E11.20687
G1 X-31.78 Y5.672 E11.44482
G1 X-36.465 Y0.989 E11.73399
G1 X-36.744 Y0.675 E11.75233
G1 X-37.477 Y-.257 E11.80409
G1 X-37.776 Y-.704 E11.82757
G1 X-38.142 Y-1.353 E11.86009
G1 X-38.357 Y-1.808 E11.88206
G1 X-38.677 Y-2.631 E11.92061
G1 X-38.849 Y-3.221 E11.94744
G1 X-39.126 Y-4.615 E12.00948
G1 X-39.19 Y-5.142 E12.03265
G1 X-39.177 Y-5.647 E12.05471
G1 X-38.996 Y-7.486 E12.13537
G1 X-38.96 Y-7.751 E12.14705
G1 X-38.639 Y-9.577 E12.22798
G1 X-38.564 Y-9.908 E12.2428
G1 X-37.888 Y-12.349 E12.35337
G1 X-37.763 Y-12.719 E12.37042
G1 X-36.804 Y-15.112 E12.48296
G1 X-36.639 Y-15.466 E12.50001
G1 X-35.424 Y-17.734 E12.61233
G1 X-35.23 Y-18.054 E12.62866
G1 X-34.168 Y-19.612 E12.71097
G1 X-33.964 Y-19.882 E12.72575
G1 X-31.865 Y-22.404 E12.86898
G1 X-31.494 Y-22.787 E12.89226
G1 X-29.045 Y-24.957 E13.0351
G1 X-28.705 Y-25.223 E13.05394
G1 X-26.565 Y-26.695 E13.16733
G1 X-26.304 Y-26.858 E13.18076
G1 X-24.632 Y-27.805 E13.26465
G1 X-24.23 Y-28 E13.28415
G1 X-21.214 Y-29.234 E13.42641
G1 X-20.813 Y-29.371 E13.4449
G1 X-18.331 Y-30.053 E13.55727
G1 X-18.034 Y-30.121 E13.57057
G1 X-16.222 Y-30.454 E13.651
G1 X-15.937 Y-30.494 E13.66356
G1 X-8.981 Y-31.193 E13.96875
G1 X-8.761 Y-31.209 E13.97837
G1 X-.667 Y-31.513 E14.33196
G1 X-.43 Y-31.513 E14.3423
G1 X6.717 Y-31.301 E14.65444
G1 X6.942 Y-31.288 E14.66428
G1 X15.229 Y-30.509 E15.02763
G1 X15.549 Y-30.464 E15.04174
G1 X18.145 Y-29.977 E15.15704
G1 X18.604 Y-29.858 E15.17774
G1 X21.727 Y-28.823 E15.32136
G1 X22.042 Y-28.701 E15.33611
G1 X23.765 Y-27.94 E15.41833
G1 X24.098 Y-27.772 E15.43462
G1 X26.326 Y-26.491 E15.54681
G1 X26.652 Y-26.279 E15.56378
G1 X28.718 Y-24.766 E15.67557
G1 X29.073 Y-24.468 E15.6958
G1 X31.443 Y-22.198 E15.83906
G1 X31.683 Y-21.944 E15.85432
G1 X32.953 Y-20.46 E15.93959
G1 X33.181 Y-20.163 E15.95593
G1 X34.65 Y-18.023 E16.06924
G1 X34.852 Y-17.691 E16.08621
G1 X36.048 Y-15.455 E16.1969
G1 X36.213 Y-15.102 E16.21391
G1 X37.167 Y-12.719 E16.32597
G1 X37.295 Y-12.336 E16.3436
G1 X38.004 Y-9.735 E16.46128
G1 X38.091 Y-9.32 E16.47979
G1 X38.53 Y-6.329 E16.61176
G1 X38.566 Y-5.747 E16.63722
G1 X38.546 Y-4.736 E16.68136
G1 X38.445 Y-3.965 E16.7153
G1 X38.167 Y-2.833 E16.76619
G1 X38.03 Y-2.397 E16.78614
G1 X37.913 Y-2.096 E16.80024
G1 X37.703 Y-1.652 E16.82168
G1 X36.997 Y-.39 E16.8848
G1 X36.663 Y0.104 E16.91083
G1 X36.221 Y0.651 E16.94153
G1 X35.973 Y0.927 E16.95773
G1 X33.377 Y3.527 E17.11812
G1 X29.672 Y7.575 E17.35768
G1 X26.238 Y11.781 E17.59471
G1 X23.016 Y16.22 E17.83415
G1 X20.074 Y20.795 E18.0716
G1 X17.792 Y24.784 E18.27222
G1 X17.494 Y25.223 E18.29538
G1 X17.134 Y25.613 E18.31855
G1 X16.72 Y25.944 E18.34169
G1 X16.26 Y26.21 E18.36488
G1 X15.766 Y26.403 E18.38804
G1 X15.248 Y26.52 E18.41122
G1 X14.719 Y26.558 E18.43437
G1 X14.404 Y26.543 E18.44814
G1 X6.777 Y25.83 E18.78254
G1 X3.302 Y25.648 E18.93444
G1 X0.606 Y25.593 E19.05216
G0 F3600 X0.609 Y25.243
G1 F2400 X-2.988 Y25.287 E19.20919
G1 X-5.694 Y25.408 E19.32744
G1 X-11.232 Y25.876 E19.57006
G1 X-14.392 Y26.224 E19.70884
G1 X-14.896 Y26.239 E19.73085
G1 X-15.395 Y26.175 E19.75281
G1 X-15.878 Y26.032 E19.7748
G1 X-16.332 Y25.815 E19.79677
G1 X-16.747 Y25.528 E19.81879
G1 X-17.111 Y25.18 E19.84078
G1 X-17.497 Y24.643 E19.86965
G1 X-18.451 Y22.973 E19.9536
G1 X-21.35 Y18.304 E20.19352
G1 X-24.498 Y13.823 E20.43258
G1 X-27.9 Y9.519 E20.67207
G1 X-31.518 Y5.44 E20.91009
G1 X-36.218 Y0.742 E21.20018
G1 X-36.469 Y0.459 E21.2167
G1 X-37.202 Y-.473 E21.26846
G1 X-37.472 Y-.876 E21.28963
G1 X-37.838 Y-1.525 E21.32216
G1 X-38.031 Y-1.934 E21.3419
G1 X-38.351 Y-2.757 E21.38045
G1 X-38.506 Y-3.289 E21.40464
G1 X-38.783 Y-4.683 E21.46668
G1 X-38.842 Y-5.183 E21.48866
G1 X-38.829 Y-5.613 E21.50744
G1 X-38.648 Y-7.452 E21.58811
G1 X-38.615 Y-7.691 E21.59864
G1 X-38.294 Y-9.517 E21.67958
G1 X-38.227 Y-9.814 E21.69287
G1 X-37.551 Y-12.255 E21.80344
G1 X-37.438 Y-12.589 E21.81883
G1 X-36.479 Y-14.982 E21.93137
G1 X-36.331 Y-15.3 E21.94668
G1 X-35.116 Y-17.568 E22.059
G1 X-34.94 Y-17.857 E22.07377
G1 X-33.878 Y-19.415 E22.15608
G1 X-33.695 Y-19.658 E22.16936
G1 X-31.596 Y-22.18 E22.3126
G1 X-31.262 Y-22.525 E22.33356
G1 X-28.813 Y-24.695 E22.4764
G1 X-28.506 Y-24.935 E22.49341
G1 X-26.366 Y-26.407 E22.6068
G1 X-26.132 Y-26.554 E22.61886
G1 X-24.46 Y-27.501 E22.70274
G1 X-24.097 Y-27.677 E22.72035
G1 X-21.081 Y-28.911 E22.86261
G1 X-20.72 Y-29.034 E22.87926
G1 X-18.238 Y-29.716 E22.99162
G1 X-17.971 Y-29.777 E23.00358
G1 X-16.159 Y-30.11 E23.084
G1 X-15.902 Y-30.146 E23.09533
G1 X-8.946 Y-30.845 E23.40052
G1 X-8.748 Y-30.859 E23.40918
G1 X-.654 Y-31.163 E23.76277
G1 X-.441 Y-31.164 E23.77207
G1 X6.706 Y-30.952 E24.0842
G1 X6.909 Y-30.939 E24.09308
G1 X15.196 Y-30.16 E24.45643
G1 X15.484 Y-30.12 E24.46913
G1 X18.08 Y-29.633 E24.58443
G1 X18.494 Y-29.526 E24.60309
G1 X21.617 Y-28.491 E24.74672
G1 X21.901 Y-28.381 E24.76001
G1 X23.624 Y-27.62 E24.84224
G1 X23.924 Y-27.468 E24.85692
G1 X26.152 Y-26.187 E24.96911
G1 X26.445 Y-25.997 E24.98435
G1 X28.511 Y-24.484 E25.09614
G1 X28.831 Y-24.215 E25.11439
G1 X31.201 Y-21.945 E25.25765
G1 X31.417 Y-21.716 E25.27139
G1 X32.687 Y-20.232 E25.35666
G1 X32.893 Y-19.965 E25.37138
G1 X34.362 Y-17.825 E25.48469
G1 X34.544 Y-17.525 E25.50001
G1 X35.74 Y-15.289 E25.61071
G1 X35.888 Y-14.972 E25.62598
G1 X36.842 Y-12.589 E25.73803
G1 X36.957 Y-12.244 E25.75391
G1 X37.666 Y-9.643 E25.8716
G1 X37.744 Y-9.269 E25.88827
G1 X38.183 Y-6.278 E26.02024
G1 X38.216 Y-5.754 E26.04316
G1 X38.196 Y-4.743 E26.0873
G1 X38.105 Y-4.049 E26.11786
G1 X37.827 Y-2.917 E26.16874
G1 X37.703 Y-2.524 E26.18673
G1 X37.586 Y-2.223 E26.20083
G1 X37.398 Y-1.823 E26.22013
G1 X36.692 Y-.561 E26.28325
G1 X36.391 Y-.116 E26.3067
G1 X35.949 Y0.431 E26.3374
G1 X35.726 Y0.679 E26.35196
G1 X33.13 Y3.279 E26.51235
G1 X29.407 Y7.347 E26.75308
G1 X25.948 Y11.584 E26.99185
G1 X22.74 Y16.003 E27.23023
G1 X19.768 Y20.626 E27.47015
G1 X17.488 Y24.61 E27.67053
G1 X17.204 Y25.026 E27.69252
G1 X16.858 Y25.391 E27.71448
G1 X16.458 Y25.698 E27.73649
G1 X16.015 Y25.937 E27.75846
G1 X15.54 Y26.104 E27.78044
G1 X15.044 Y26.193 E27.80244
G1 X14.436 Y26.194 E27.82898
G1 X6.827 Y25.482 E28.1626
G1 X3.295 Y25.298 E28.31699
G1 X0.609 Y25.243 E28.43427
G1 F2100 E23.43427
G1 Z0.8
G0 F3600 X1.103 Y8.205 Z0.8
;TYPE:WALL-INNER
G1 Z0.3
G1 F2100 E28.43427
G1 F2400 X-.712 Y8.221 E28.51646
G1 X-1.71 Y8.203 E28.56003
G1 X-3.13 Y8.152 E28.62206
G1 X-4.538 Y8.071 E28.68362
G1 X-5.95 Y7.954 E28.74547
G1 X-7.36 Y7.806 E28.80736
G1 X-8.749 Y7.628 E28.8685
G1 X-10.152 Y7.414 E28.93045
G1 X-11.543 Y7.169 E28.99211
G1 X-12.932 Y6.892 E29.05394
G1 X-14.316 Y6.582 E29.11585
G1 X-15.677 Y6.245 E29.17706
G1 X-17.047 Y5.87 E29.23906
G1 X-18.399 Y5.467 E29.30065
G1 X-19.739 Y5.033 E29.36214
G1 X-21.085 Y4.563 E29.42438
G1 X-22.397 Y4.07 E29.48556
G1 X-23.72 Y3.539 E29.54779
G1 X-25.018 Y2.982 E29.60945
G1 X-26.304 Y2.394 E29.67118
G1 X-27.568 Y1.781 E29.73251
G1 X-28.827 Y1.134 E29.7943
G1 X-30.074 Y0.456 E29.85626
G1 X-31.299 Y-.246 E29.9179
G1 X-32.498 Y-.97 E29.97904
G1 X-32.873 Y-1.224 E29.99881
G1 X-33.209 Y-1.491 E30.01755
G1 X-33.547 Y-1.806 E30.03771
G1 X-33.673 Y-1.937 E30.04565
G1 X-33.969 Y-2.287 E30.06566
G1 X-34.102 Y-2.463 E30.07529
G1 X-34.338 Y-2.817 E30.09386
G1 X-34.551 Y-3.198 E30.11292
G1 X-34.646 Y-3.389 E30.12223
G1 X-34.807 Y-3.772 E30.14037
G1 X-34.908 Y-4.06 E30.15369
G1 X-35.017 Y-4.442 E30.17103
G1 X-35.104 Y-4.872 E30.19018
G1 X-35.153 Y-5.266 E30.20751
G1 X-35.09 Y-6.191 E30.24799
G1 X-34.979 Y-7.061 E30.28627
G1 X-34.798 Y-8.049 E30.33012
G1 X-34.681 Y-8.776 E30.36227
G1 X-34.006 Y-11.234 E30.47354
G1 X-33.061 Y-13.592 E30.58444
G1 X-31.875 Y-15.802 E30.69393
G1 X-30.424 Y-17.906 E30.8055
G1 X-28.779 Y-19.798 E30.91494
G1 X-26.912 Y-21.518 E31.02576
G1 X-24.883 Y-23.004 E31.13555
G1 X-22.681 Y-24.269 E31.24641
G1 X-20.373 Y-25.271 E31.35624
G1 X-17.952 Y-26.014 E31.4668
G1 X-15.458 Y-26.485 E31.57759
G1 X-7.911 Y-27.229 E31.90865
G1 X-.298 Y-27.479 E32.24116
G1 X7.314 Y-27.229 E32.57364
G1 X14.861 Y-26.485 E32.90469
G1 X17.355 Y-26.014 E33.01549
G1 X19.776 Y-25.271 E33.12604
G1 X22.084 Y-24.269 E33.23588
G1 X24.286 Y-23.004 E33.34674
G1 X26.315 Y-21.518 E33.45652
G1 X28.182 Y-19.798 E33.56734
G1 X29.827 Y-17.906 E33.67679
G1 X31.278 Y-15.802 E33.78836
G1 X32.464 Y-13.592 E33.89785
G1 X33.409 Y-11.234 E34.00874
G1 X34.077 Y-8.811 E34.11846
G1 X34.201 Y-8.039 E34.15259
G1 X34.222 Y-7.953 E34.15646
G1 X34.385 Y-7.05 E34.19651
G1 X34.495 Y-6.164 E34.23549
G1 X34.556 Y-5.274 E34.27443
G1 X34.508 Y-4.85 E34.29306
G1 X34.429 Y-4.434 E34.31154
G1 X34.308 Y-3.997 E34.33134
G1 X34.24 Y-3.795 E34.34064
G1 X34.075 Y-3.389 E34.35977
G1 X33.877 Y-2.996 E34.37898
G1 X33.743 Y-2.766 E34.39061
G1 X33.513 Y-2.418 E34.40881
G1 X33.216 Y-2.043 E34.4297
G1 X33.08 Y-1.891 E34.4386
G1 X32.766 Y-1.576 E34.45802
G1 X32.486 Y-1.335 E34.47414
G1 X32.241 Y-1.147 E34.48763
G1 X32.084 Y-1.038 E34.49597
G1 X31.749 Y-.828 E34.51323
G1 X30.706 Y-.2 E34.56638
G1 X29.474 Y0.504 E34.62832
G1 X28.229 Y1.178 E34.69012
G1 X26.978 Y1.819 E34.75148
G1 X25.704 Y2.434 E34.81324
G1 X24.418 Y3.019 E34.87491
G1 X23.119 Y3.574 E34.93658
G1 X21.795 Y4.105 E34.99885
G1 X20.482 Y4.595 E35.06003
G1 X19.135 Y5.065 E35.12231
G1 X17.802 Y5.493 E35.18343
G1 X16.443 Y5.894 E35.24528
G1 X15.083 Y6.264 E35.30681
G1 X13.699 Y6.606 E35.36904
G1 X12.332 Y6.91 E35.43018
G1 X10.938 Y7.186 E35.49221
G1 X9.545 Y7.429 E35.55394
G1 X8.15 Y7.639 E35.61552
G1 X6.752 Y7.817 E35.67704
G1 X5.342 Y7.963 E35.73892
G1 X3.931 Y8.077 E35.80072
G1 X2.523 Y8.156 E35.86228
G1 X1.103 Y8.205 E35.92431
G0 F3600 X1.101 Y8.106
G0 X-.298 Y-8.451
G0 X-.298 Y-8.551
G1 F2400 X6.076 Y-8.341 E36.20271
G1 X12.394 Y-7.719 E36.47985
G1 X13.85 Y-7.479 E36.54427
G1 X15.226 Y-7.479 E36.60433
G1 X15.226 Y-23.529 E37.30498
G1 X9.476 Y-23.529 E37.55599
G1 X9.476 Y-22.029 E37.62147
G1 X9.476 Y-20.529 E37.68695
G1 X9.222 Y-20.529 E37.69804
G1 X9.222 Y-22.029 E37.74556
G1 X4.18 Y-22.029 E37.96566
G1 X4.18 Y-20.529 E38.03114
G1 X-4.777 Y-20.529 E38.42215
G1 X-4.777 Y-22.029 E38.48763
G1 X-9.819 Y-22.029 E38.70774
G1 X-9.819 Y-20.529 E38.77322
G1 X-10.073 Y-20.529 E38.7843
G1 X-10.073 Y-22.029 E38.83182
G1 X-10.073 Y-23.529 E38.89731
G1 X-15.823 Y-23.529 E39.14832
G1 X-15.823 Y-7.479 E39.84896
G1 X-14.447 Y-7.479 E39.90903
G1 X-12.991 Y-7.719 E39.97345
G1 X-6.673 Y-8.341 E40.25059
G1 X-.298 Y-8.551 E40.52903
G0 F3600 X-.298 Y-8.451
G0 X-14.444 Y-7.44
G0 X-15.851 Y-7.451
G0 X-22.241 Y-13.91
G0 X-22.337 Y-13.935
G1 F2400 X-22.268 Y-14.46 E40.55215
G1 X-22.337 Y-14.985 E40.57526
G1 X-22.54 Y-15.475 E40.59841
G1 X-22.862 Y-15.896 E40.62155
G1 X-23.283 Y-16.218 E40.64469
G1 X-23.773 Y-16.421 E40.66784
G1 X-24.298 Y-16.49 E40.69096
G1 X-24.823 Y-16.421 E40.71407
G1 X-25.313 Y-16.218 E40.73723
G1 X-25.734 Y-15.896 E40.76036
G1 X-26.056 Y-15.475 E40.7835
G1 X-26.259 Y-14.985 E40.80666
G1 X-26.328 Y-14.46 E40.82977
G1 X-26.259 Y-13.935 E40.85289
G1 X-26.056 Y-13.445 E40.87604
G1 X-25.734 Y-13.024 E40.89918
G1 X-25.313 Y-12.702 E40.92232
G1 X-24.823 Y-12.499 E40.94547
G1 X-24.298 Y-12.43 E40.96858
G1 X-23.773 Y-12.499 E40.9917
G1 X-23.283 Y-12.702 E41.01485
G1 X-22.862 Y-13.024 E41.03799
G1 X-22.54 Y-13.445 E41.06113
G1 X-22.337 Y-13.935 E41.08428
G0 F3600 X-22.241 Y-13.91
G0 X-15.851 Y-7.451
G0 X15.254 Y-7.451
G0 X21.571 Y-14.46
G0 X21.671 Y-14.46
G1 F2400 X21.74 Y-13.935 E41.1074
G1 X21.943 Y-13.445 E41.13055
G1 X22.265 Y-13.024 E41.15369
G1 X22.689 Y-12.701 E41.17696
G1 X23.197 Y-12.497 E41.20085
G1 X23.722 Y-12.432 E41.22395
G1 X24.245 Y-12.507 E41.24701
G1 X24.73 Y-12.714 E41.27003
G1 X25.137 Y-13.024 E41.29237
G1 X25.459 Y-13.445 E41.3155
G1 X25.662 Y-13.935 E41.33866
G1 X25.731 Y-14.46 E41.36177
G1 X25.662 Y-14.985 E41.38489
G1 X25.459 Y-15.475 E41.40804
G1 X25.137 Y-15.896 E41.43118
G1 X24.716 Y-16.218 E41.45432
