;FLAVOR:RepRap
;TIME:1466
;Filament used: 1.90656m
;Layer height: 0.2
;Generated with Cura_SteamEngine master
M190 S60
M104 S205
M109 S205
G21 ;metric values
G90 ;absolute positioning
M82 ;set extruder to absolute mode
M107 ;start with the fan off
G28 X0 Y0 ;move X/Y to min endstops
G1 F200 E-1 ;retract 1mm of feed stock
G29
G92 E0 ;zero the extruded length
G1 F200 E3 ;extrude 3mm of feed stock
G92 E0 ;zero the extruded length again
G1 F9000
M117 Printing...
;LAYER_COUNT:30
;LAYER:0
M107
G0 F3600 X0.583 Y19.975 Z0.3
;TYPE:SKIRT
G1 F2100 X-7.234 Y19.757 E0.39014
G1 X-7.501 Y19.741 E0.40349
G1 X-14.28 Y19.095 E0.74323
G1 X-14.533 Y19.063 E0.75595
G1 X-22.371 Y17.808 E1.15197
G1 X-22.725 Y17.735 E1.17
G1 X-24.672 Y17.24 E1.27023
G1 X-25.115 Y17.099 E1.29342
G1 X-26.877 Y16.425 E1.38754
G1 X-27.279 Y16.245 E1.40951
G1 X-28.893 Y15.414 E1.50008
G1 X-29.276 Y15.189 E1.52225
G1 X-30.88 Y14.123 E1.61833
G1 X-31.199 Y13.888 E1.6381
G1 X-32.255 Y13.024 E1.70617
G1 X-32.494 Y12.812 E1.72211
G1 X-33.493 Y11.852 E1.79123
G1 X-33.767 Y11.56 E1.81121
G1 X-35.03 Y10.076 E1.90843
G1 X-35.268 Y9.768 E1.92785
G1 X-36.027 Y8.677 E1.99415
G1 X-36.205 Y8.397 E2.01071
G1 X-36.931 Y7.143 E2.083
G1 X-37.109 Y6.798 E2.10236
G1 X-37.864 Y5.141 E2.19321
G1 X-38.004 Y4.791 E2.21202
G1 X-38.45 Y3.503 E2.28002
G1 X-38.56 Y3.125 E2.29966
G1 X-39.012 Y1.237 E2.39651
G1 X-39.098 Y0.739 E2.42173
G1 X-39.348 Y-1.556 E2.5369
G1 X-39.37 Y-2.121 E2.56511
G1 X-39.32 Y-2.632 E2.59073
G1 X-39.166 Y-3.578 E2.63854
G1 X-39.018 Y-4.184 E2.66967
G1 X-38.718 Y-5.097 E2.71761
G1 X-38.47 Y-5.688 E2.74959
G1 X-38.008 Y-6.58 E2.79971
G1 X-37.553 Y-7.271 E2.84098
G1 X-36.56 Y-8.486 E2.91927
G1 X-36.172 Y-8.898 E2.9475
G1 X-35.785 Y-9.212 E2.97237
G1 X-34.151 Y-10.377 E3.07248
G1 X-33.815 Y-10.592 E3.09239
G1 X-31.257 Y-12.055 E3.2394
G1 X-31.091 Y-12.145 E3.24882
G1 X-28.58 Y-13.428 E3.3895
G1 X-28.414 Y-13.508 E3.3987
G1 X-25.785 Y-14.702 E3.54275
G1 X-25.623 Y-14.771 E3.55154
G1 X-23.228 Y-15.734 E3.68032
G1 X-23.008 Y-15.815 E3.69202
G1 X-18.671 Y-17.27 E3.92024
G1 X-18.441 Y-17.34 E3.93224
G1 X-15.718 Y-18.075 E4.07295
G1 X-15.542 Y-18.118 E4.08199
G1 X-12.749 Y-18.737 E4.22471
G1 X-12.575 Y-18.772 E4.23357
G1 X-10.069 Y-19.212 E4.36051
G1 X-9.898 Y-19.238 E4.36913
G1 X-7.135 Y-19.601 E4.50817
G1 X-6.949 Y-19.621 E4.5175
G1 X-3.97 Y-19.871 E4.66664
G1 X-3.793 Y-19.882 E4.67549
G1 X-1.181 Y-19.985 E4.80591
G1 X-.986 Y-19.988 E4.81564
G1 X2.241 Y-19.958 E4.97664
G1 X2.44 Y-19.951 E4.98657
G1 X5.365 Y-19.778 E5.13276
G1 X5.549 Y-19.763 E5.14197
G1 X8.317 Y-19.471 E5.28083
G1 X8.499 Y-19.447 E5.28999
G1 X11.33 Y-19.016 E5.43286
G1 X11.513 Y-18.984 E5.44212
G1 X14.34 Y-18.418 E5.58596
G1 X14.513 Y-18.379 E5.59481
G1 X17.021 Y-17.76 E5.72369
G1 X17.191 Y-17.715 E5.73246
G1 X19.916 Y-16.914 E5.87416
G1 X20.093 Y-16.857 E5.88344
G1 X22.834 Y-15.911 E6.02811
G1 X23.009 Y-15.846 E6.03742
G1 X25.611 Y-14.81 E6.17715
G1 X25.78 Y-14.738 E6.18631
G1 X28.428 Y-13.54 E6.33131
G1 X28.593 Y-13.461 E6.34044
G1 X31.047 Y-12.212 E6.47781
G1 X31.258 Y-12.096 E6.48983
G1 X34.816 Y-10.007 E6.69567
G1 X35.355 Y-9.629 E6.72851
G1 X36.106 Y-9.002 E6.77732
G1 X36.649 Y-8.45 E6.81595
G1 X37.502 Y-7.398 E6.88352
G1 X37.962 Y-6.689 E6.92569
G1 X38.549 Y-5.532 E6.99041
G1 X38.807 Y-4.893 E7.0248
G1 X39.044 Y-4.119 E7.06518
G1 X39.168 Y-3.585 E7.09253
G1 X39.319 Y-2.649 E7.13983
G1 X39.369 Y-2.086 E7.16803
G1 X39.362 Y-1.754 E7.1846
G1 X39.3 Y-.794 E7.23259
G1 X39.263 Y-.451 E7.2498
G1 X38.984 Y1.386 E7.3425
G1 X38.905 Y1.774 E7.36226
G1 X38.551 Y3.161 E7.43367
G1 X38.438 Y3.528 E7.45283
G1 X37.807 Y5.279 E7.54569
G1 X37.631 Y5.692 E7.56809
G1 X36.792 Y7.393 E7.66271
G1 X36.514 Y7.871 E7.6903
G1 X34.981 Y10.129 E7.82646
G1 X34.644 Y10.559 E7.85372
G1 X33.371 Y11.972 E7.9486
G1 X33.092 Y12.253 E7.96836
G1 X32.055 Y13.197 E8.03832
G1 X31.752 Y13.446 E8.05788
G1 X30.233 Y14.578 E8.1524
G1 X29.861 Y14.824 E8.17465
G1 X28.251 Y15.765 E8.26768
G1 X27.857 Y15.968 E8.2898
G1 X26.155 Y16.724 E8.38271
G1 X25.692 Y16.896 E8.40735
G1 X23.496 Y17.562 E8.52184
G1 X23.005 Y17.677 E8.547
G1 X15.992 Y18.869 E8.90189
G1 X15.734 Y18.905 E8.91489
G1 X7.986 Y19.708 E9.30351
G1 X7.718 Y19.726 E9.31691
G1 X0.839 Y19.974 E9.66033
G1 X0.583 Y19.975 E9.6731
G0 F3600 X0.595 Y19.576
G1 F2100 X-7.222 Y19.358 E10.06324
G1 X-7.464 Y19.343 E10.07534
G1 X-14.243 Y18.697 E10.41508
G1 X-14.47 Y18.668 E10.42649
G1 X-22.308 Y17.413 E10.82252
G1 X-22.626 Y17.347 E10.83872
G1 X-24.573 Y16.852 E10.93894
G1 X-24.972 Y16.725 E10.95983
G1 X-26.734 Y16.051 E11.05395
G1 X-27.096 Y15.89 E11.07372
G1 X-28.71 Y15.059 E11.16429
G1 X-29.055 Y14.856 E11.18426
G1 X-30.659 Y13.79 E11.28034
G1 X-30.946 Y13.578 E11.29814
G1 X-32.002 Y12.714 E11.36622
G1 X-32.216 Y12.524 E11.38049
G1 X-33.215 Y11.564 E11.44962
G1 X-33.463 Y11.301 E11.46765
G1 X-34.726 Y9.817 E11.56487
G1 X-34.939 Y9.54 E11.5823
G1 X-35.698 Y8.449 E11.64861
G1 X-35.859 Y8.197 E11.66353
G1 X-36.585 Y6.943 E11.73582
G1 X-36.745 Y6.632 E11.75327
G1 X-37.5 Y4.975 E11.84411
G1 X-37.626 Y4.66 E11.86104
G1 X-38.072 Y3.372 E11.92904
G1 X-38.171 Y3.032 E11.94671
G1 X-38.623 Y1.144 E12.04356
G1 X-38.701 Y0.696 E12.06625
G1 X-38.951 Y-1.599 E12.18143
G1 X-38.969 Y-2.135 E12.20818
G1 X-38.925 Y-2.567 E12.22985
G1 X-38.771 Y-3.513 E12.27766
G1 X-38.638 Y-4.059 E12.3057
G1 X-38.338 Y-4.972 E12.35365
G1 X-38.115 Y-5.504 E12.38243
G1 X-37.653 Y-6.396 E12.43254
G1 X-37.243 Y-7.018 E12.46971
G1 X-36.25 Y-8.233 E12.54799
G1 X-35.881 Y-8.622 E12.57474
G1 X-35.553 Y-8.886 E12.59575
G1 X-33.919 Y-10.051 E12.69587
G1 X-33.616 Y-10.245 E12.71382
G1 X-31.058 Y-11.708 E12.86084
G1 X-30.909 Y-11.789 E12.8693
G1 X-28.398 Y-13.072 E13.00998
G1 X-28.249 Y-13.144 E13.01823
G1 X-25.62 Y-14.338 E13.16229
G1 X-25.474 Y-14.4 E13.1702
G1 X-23.079 Y-15.363 E13.29899
G1 X-22.881 Y-15.436 E13.30951
G1 X-18.544 Y-16.891 E13.53774
G1 X-18.337 Y-16.954 E13.54854
G1 X-15.614 Y-17.689 E13.68925
G1 X-15.455 Y-17.728 E13.69742
G1 X-12.662 Y-18.347 E13.84014
G1 X-12.506 Y-18.378 E13.84808
G1 X-10 Y-18.818 E13.97501
G1 X-9.846 Y-18.841 E13.98278
G1 X-7.083 Y-19.204 E14.12181
G1 X-6.915 Y-19.222 E14.13024
G1 X-3.936 Y-19.472 E14.27939
G1 X-3.777 Y-19.482 E14.28734
G1 X-1.165 Y-19.585 E14.41775
G1 X-.99 Y-19.588 E14.42648
G1 X2.237 Y-19.558 E14.58748
G1 X2.417 Y-19.552 E14.59647
G1 X5.342 Y-19.379 E14.74265
G1 X5.507 Y-19.365 E14.75091
G1 X8.275 Y-19.073 E14.88978
G1 X8.439 Y-19.052 E14.89803
G1 X11.27 Y-18.621 E15.04089
G1 X11.435 Y-18.592 E15.04925
G1 X14.262 Y-18.026 E15.19309
G1 X14.418 Y-17.991 E15.20107
G1 X16.926 Y-17.372 E15.32995
G1 X17.078 Y-17.331 E15.3378
G1 X19.803 Y-16.53 E15.4795
G1 X19.962 Y-16.479 E15.48783
G1 X22.703 Y-15.533 E15.6325
G1 X22.861 Y-15.475 E15.64089
G1 X25.463 Y-14.439 E15.78062
G1 X25.615 Y-14.374 E15.78887
G1 X28.263 Y-13.176 E15.93387
G1 X28.412 Y-13.104 E15.94212
G1 X30.866 Y-11.855 E16.0795
G1 X31.056 Y-11.751 E16.09031
G1 X34.614 Y-9.662 E16.29615
G1 X35.098 Y-9.321 E16.32569
G1 X35.849 Y-8.694 E16.3745
G1 X36.338 Y-8.198 E16.40925
G1 X37.191 Y-7.146 E16.47682
G1 X37.605 Y-6.508 E16.51476
G1 X38.192 Y-5.351 E16.57949
G1 X38.424 Y-4.776 E16.61042
G1 X38.661 Y-4.002 E16.6508
G1 X38.773 Y-3.521 E16.67544
G1 X38.924 Y-2.585 E16.72275
G1 X38.97 Y-2.051 E16.74949
G1 X38.963 Y-1.78 E16.76301
G1 X38.901 Y-.82 E16.811
G1 X38.867 Y-.511 E16.82651
G1 X38.588 Y1.326 E16.91921
G1 X38.517 Y1.675 E16.93698
G1 X38.163 Y3.062 E17.0084
G1 X38.062 Y3.392 E17.02561
G1 X37.431 Y5.143 E17.11847
G1 X37.273 Y5.515 E17.13864
G1 X36.434 Y7.216 E17.23326
G1 X36.183 Y7.646 E17.2581
G1 X34.65 Y9.904 E17.39426
G1 X34.347 Y10.292 E17.41882
G1 X33.074 Y11.705 E17.51371
G1 X32.822 Y11.957 E17.53149
G1 X31.785 Y12.901 E17.60145
G1 X31.513 Y13.126 E17.61906
G1 X29.994 Y14.258 E17.71357
G1 X29.66 Y14.479 E17.73355
G1 X28.05 Y15.42 E17.82659
G1 X27.694 Y15.602 E17.84654
G1 X25.992 Y16.358 E17.93945
G1 X25.576 Y16.513 E17.9616
G1 X23.38 Y17.179 E18.07609
G1 X22.938 Y17.283 E18.09874
G1 X15.925 Y18.475 E18.45364
G1 X15.693 Y18.507 E18.46532
G1 X7.945 Y19.31 E18.85394
G1 X7.704 Y19.327 E18.86599
G1 X0.825 Y19.575 E19.20941
G1 X0.595 Y19.576 E19.22089
G0 F3600 X0.606 Y19.176
G1 F2100 X-7.211 Y18.958 E19.61103
G1 X-7.426 Y18.945 E19.62178
G1 X-14.205 Y18.299 E19.96151
G1 X-14.407 Y18.273 E19.97167
G1 X-22.245 Y17.018 E20.36769
G1 X-22.527 Y16.959 E20.38207
G1 X-24.474 Y16.464 E20.48229
G1 X-24.829 Y16.352 E20.50087
G1 X-26.591 Y15.678 E20.59498
G1 X-26.913 Y15.534 E20.61258
G1 X-28.527 Y14.703 E20.70315
G1 X-28.833 Y14.523 E20.72086
G1 X-30.437 Y13.457 E20.81695
G1 X-30.692 Y13.269 E20.83275
G1 X-31.748 Y12.405 E20.90082
G1 X-31.939 Y12.235 E20.91358
G1 X-32.938 Y11.275 E20.9827
G1 X-33.158 Y11.042 E20.99869
G1 X-34.421 Y9.558 E21.09591
G1 X-34.611 Y9.311 E21.11146
G1 X-35.37 Y8.22 E21.17777
G1 X-35.512 Y7.996 E21.191
G1 X-36.238 Y6.742 E21.26329
G1 X-36.381 Y6.466 E21.2788
G1 X-37.136 Y4.809 E21.36964
G1 X-37.248 Y4.529 E21.38469
G1 X-37.694 Y3.241 E21.45269
G1 X-37.782 Y2.939 E21.46838
G1 X-38.234 Y1.051 E21.56524
G1 X-38.303 Y0.653 E21.58539
G1 X-38.553 Y-1.642 E21.70056
G1 X-38.568 Y-2.148 E21.72582
G1 X-38.53 Y-2.503 E21.74363
G1 X-38.376 Y-3.449 E21.79145
G1 X-38.258 Y-3.934 E21.81635
G1 X-37.958 Y-4.847 E21.8643
G1 X-37.759 Y-5.32 E21.8899
G1 X-37.297 Y-6.212 E21.94002
G1 X-36.934 Y-6.765 E21.97302
G1 X-35.941 Y-7.98 E22.0513
G1 X-35.591 Y-8.345 E22.07653
G1 X-35.321 Y-8.561 E22.09378
G1 X-33.687 Y-9.726 E22.1939
G1 X-33.418 Y-9.898 E22.20983
G1 X-30.86 Y-11.361 E22.35685
G1 X-30.727 Y-11.433 E22.3644
G1 X-28.216 Y-12.716 E22.50507
G1 X-28.083 Y-12.78 E22.51244
G1 X-25.454 Y-13.974 E22.65649
G1 X-25.325 Y-14.029 E22.66349
G1 X-22.93 Y-14.992 E22.79227
G1 X-22.754 Y-15.057 E22.80163
G1 X-18.417 Y-16.512 E23.02986
G1 X-18.233 Y-16.567 E23.03944
G1 X-15.51 Y-17.302 E23.18015
G1 X-15.368 Y-17.337 E23.18745
G1 X-12.575 Y-17.956 E23.33018
G1 X-12.436 Y-17.984 E23.33725
G1 X-9.93 Y-18.424 E23.46419
G1 X-9.794 Y-18.445 E23.47105
G1 X-7.031 Y-18.808 E23.61008
G1 X-6.882 Y-18.824 E23.61756
G1 X-3.903 Y-19.074 E23.7667
G1 X-3.761 Y-19.083 E23.7738
G1 X-1.149 Y-19.186 E23.90422
G1 X-.993 Y-19.188 E23.912
G1 X2.234 Y-19.158 E24.073
G1 X2.393 Y-19.152 E24.08094
G1 X5.318 Y-18.979 E24.22713
G1 X5.465 Y-18.967 E24.23448
G1 X8.233 Y-18.675 E24.37335
G1 X8.379 Y-18.657 E24.38069
G1 X11.21 Y-18.226 E24.52355
G1 X11.356 Y-18.2 E24.53095
G1 X14.183 Y-17.634 E24.67479
G1 X14.322 Y-17.603 E24.68189
G1 X16.83 Y-16.984 E24.81077
G1 X16.965 Y-16.947 E24.81776
G1 X19.69 Y-16.146 E24.95946
G1 X19.832 Y-16.101 E24.96689
G1 X22.573 Y-15.155 E25.11156
G1 X22.713 Y-15.103 E25.11901
G1 X25.315 Y-14.067 E25.25873
G1 X25.45 Y-14.01 E25.26604
G1 X28.098 Y-12.812 E25.41104
G1 X28.231 Y-12.748 E25.41841
G1 X30.685 Y-11.499 E25.55578
G1 X30.853 Y-11.407 E25.56534
G1 X34.411 Y-9.318 E25.77118
G1 X34.842 Y-9.014 E25.7975
G1 X35.593 Y-8.387 E25.84631
G1 X36.028 Y-7.946 E25.87721
G1 X36.881 Y-6.894 E25.94478
G1 X37.249 Y-6.327 E25.9785
G1 X37.836 Y-5.17 E26.04323
G1 X38.042 Y-4.659 E26.07072
G1 X38.279 Y-3.885 E26.1111
G1 X38.378 Y-3.458 E26.13297
G1 X38.529 Y-2.522 E26.18027
G1 X38.563 Y-1.806 E26.21603
G1 X38.501 Y-.846 E26.26403
G1 X38.472 Y-.572 E26.27777
G1 X38.193 Y1.265 E26.37047
G1 X38.13 Y1.576 E26.3863
G1 X37.776 Y2.963 E26.45772
G1 X37.685 Y3.257 E26.47307
G1 X37.054 Y5.008 E26.56593
G1 X36.914 Y5.339 E26.58386
G1 X36.075 Y7.04 E26.67849
G1 X35.852 Y7.421 E26.70051
G1 X34.319 Y9.679 E26.83667
G1 X34.049 Y10.024 E26.85853
G1 X32.776 Y11.437 E26.95341
G1 X32.553 Y11.661 E26.96918
G1 X31.516 Y12.605 E27.03914
G1 X31.274 Y12.805 E27.05481
G1 X29.755 Y13.937 E27.14932
G1 X29.458 Y14.134 E27.1671
G1 X27.848 Y15.075 E27.26014
G1 X27.532 Y15.236 E27.27783
G1 X25.83 Y15.992 E27.37074
G1 X25.46 Y16.13 E27.39044
G1 X23.264 Y16.796 E27.50493
G1 X22.871 Y16.889 E27.52508
G1 X15.858 Y18.081 E27.87998
G1 X15.652 Y18.109 E27.89035
G1 X7.904 Y18.912 E28.27897
G1 X7.689 Y18.927 E28.28972
G1 X0.81 Y19.175 E28.63314
G1 X0.606 Y19.176 E28.64332
G1 F2100 E23.64332
G1 Z1.3
G0 F3600 X0.00 Y15 Z1.3
;TYPE:WALL-INNER
G1 Z0.3
G1 F2100 E28.64332
G1 X-7.27 Y14.76 E29.00963
G1 X-14.48 Y14.051 E29.37107
G1 X-21.665 Y12.864 E29.73439
G1 X-22.525 Y12.668 E29.7784
G1 X-23.33 Y12.436 E29.82019
G1 X-24.207 Y12.13 E29.86654
G1 X-24.999 Y11.804 E29.90926
G1 X-25.804 Y11.419 E29.95378
G1 X-26.571 Y10.998 E29.99743
G1 X-27.323 Y10.528 E30.04168
G1 X-28.022 Y10.036 E30.08432
G1 X-28.739 Y9.469 E30.12993
G1 X-29.39 Y8.892 E30.17333
G1 X-30.001 Y8.287 E30.21622
G1 X-30.611 Y7.612 E30.26161
G1 X-31.143 Y6.951 E30.30395
G1 X-31.677 Y6.21 E30.34951
G1 X-32.134 Y5.494 E30.39189
G1 X-32.58 Y4.701 E30.43728
G1 X-32.962 Y3.922 E30.48057
G1 X-33.296 Y3.135 E30.52322
G1 X-33.589 Y2.323 E30.56629
G1 X-33.842 Y1.477 E30.61034
G1 X-34.049 Y0.626 E30.65404
G1 X-34.222 Y-.332 E30.70261
G1 X-34.325 Y-1.161 E30.74428
G1 X-34.377 Y-1.967 E30.78458
G1 X-34.336 Y-2.307 E30.80166
G1 X-34.254 Y-2.711 E30.82223
G1 X-34.15 Y-3.072 E30.84097
G1 X-34.003 Y-3.47 E30.86214
G1 X-33.824 Y-3.855 E30.88332
G1 X-33.757 Y-3.982 E30.89049
G1 X-33.525 Y-4.361 E30.91266
G1 X-33.44 Y-4.483 E30.92007
G1 X-33.158 Y-4.842 E30.94285
G1 X-33.044 Y-4.971 E30.95144
G1 X-32.738 Y-5.279 E30.9731
G1 X-32.62 Y-5.385 E30.98101
G1 X-32.28 Y-5.656 E31.0027
G1 X-31.943 Y-5.883 E31.02298
G1 X-30.766 Y-6.595 E31.0916
G1 X-29.532 Y-7.302 E31.16256
G1 X-28.312 Y-7.967 E31.23188
G1 X-27.061 Y-8.608 E31.30201
G1 X-25.799 Y-9.22 E31.37198
G1 X-24.524 Y-9.803 E31.44193
G1 X-23.236 Y-10.357 E31.51188
G1 X-21.922 Y-10.884 E31.58251
G1 X-20.629 Y-11.37 E31.65142
G1 X-19.302 Y-11.832 E31.72152
G1 X-17.954 Y-12.27 E31.79224
G1 X-16.622 Y-12.665 E31.86155
G1 X-15.251 Y-13.04 E31.93246
G1 X-13.913 Y-13.373 E32.00125
G1 X-12.522 Y-13.685 E32.07237
G1 X-11.171 Y-13.954 E32.1411
G1 X-9.772 Y-14.2 E32.21197
G1 X-8.398 Y-14.41 E32.28131
G1 X-6.994 Y-14.589 E32.35192
G1 X-5.612 Y-14.735 E32.42126
G1 X-4.2 Y-14.851 E32.49194
G1 X-2.815 Y-14.931 E32.56115
G1 X-1.396 Y-14.982 E32.63199
G1 X-.41 Y-15 E32.68119
G1 X1.384 Y-14.984 E32.7707
G1 X2.804 Y-14.936 E32.84158
G1 X4.191 Y-14.857 E32.91089
G1 X5.603 Y-14.743 E32.98157
G1 X6.991 Y-14.6 E33.05118
G1 X8.37 Y-14.424 E33.12054
G1 X9.78 Y-14.211 E33.19168
G1 X11.162 Y-13.971 E33.26166
G1 X12.537 Y-13.699 E33.33159
G1 X13.884 Y-13.4 E33.40043
G1 X15.246 Y-13.063 E33.47043
G1 X16.616 Y-12.691 E33.54125
G1 X17.949 Y-12.295 E33.61063
G1 X19.277 Y-11.869 E33.68021
G1 X20.623 Y-11.4 E33.75132
G1 X21.935 Y-10.91 E33.82119
G1 X23.219 Y-10.396 E33.89019
G1 X24.53 Y-9.836 E33.96132
G1 X25.786 Y-9.266 E34.03013
G1 X27.049 Y-8.656 E34.1001
G1 X28.298 Y-8.016 E34.17012
G1 X29.53 Y-7.35 E34.23999
G1 X30.753 Y-6.65 E34.3103
G1 X31.937 Y-5.937 E34.37925
G1 X32.294 Y-5.696 E34.40074
G1 X32.599 Y-5.455 E34.42013
G1 X32.922 Y-5.154 E34.44216
G1 X33.169 Y-4.886 E34.46034
G1 X33.432 Y-4.548 E34.48171
G1 X33.66 Y-4.202 E34.50238
G1 X33.747 Y-4.052 E34.51103
G1 X33.936 Y-3.675 E34.53207
G1 X34.095 Y-3.289 E34.5529
G1 X34.203 Y-2.95 E34.57065
G1 X34.311 Y-2.486 E34.59442
G1 X34.335 Y-2.349 E34.60136
G1 X34.377 Y-1.968 E34.62048
G1 X34.322 Y-1.14 E34.66188
G1 X34.213 Y-.277 E34.70528
G1 X34.049 Y0.628 E34.75116
G1 X33.844 Y1.476 E34.79469
G1 X33.593 Y2.311 E34.83819
G1 X33.296 Y3.135 E34.88189
G1 X32.96 Y3.926 E34.92476
G1 X32.551 Y4.756 E34.97093
G1 X32.126 Y5.507 E35.01398
G1 X31.661 Y6.235 E35.05707
G1 X31.145 Y6.947 E35.10094
G1 X30.571 Y7.656 E35.14646
G1 X29.981 Y8.307 E35.19029
G1 X29.39 Y8.892 E35.23177
G1 X28.739 Y9.469 E35.27517
G1 X28.022 Y10.036 E35.32078
G1 X27.323 Y10.528 E35.36342
G1 X26.571 Y10.998 E35.40767
G1 X25.804 Y11.419 E35.45132
G1 X25.005 Y11.802 E35.49552
G1 X24.191 Y12.138 E35.53946
G1 X23.308 Y12.444 E35.58608
G1 X22.531 Y12.667 E35.62641
G1 X21.665 Y12.864 E35.67072
G1 X14.48 Y14.051 E36.03404
G1 X7.27 Y14.76 E36.39548
G1 X0.00 Y15 E36.75838
G0 F3600 X-21.576 Y7.854
G1 F2100 X-21.492 Y7.206 E36.79098
G1 X-21.576 Y6.558 E36.82358
G1 X-21.825 Y5.953 E36.85622
G1 X-22.226 Y5.43 E36.8891
G1 X-22.747 Y5.034 E36.92175
G1 X-23.35 Y4.782 E36.95435
G1 X-24 Y4.698 E36.98705
G1 X-24.648 Y4.782 E37.01965
