;FLAVOR:RepRap
;TIME:1463
;Filament used: 1.90628m
;Layer height: 0.2
;Generated with Cura_SteamEngine master
M190 S60
M104 S205
M109 S205
G21 ;metric values
G90 ;absolute positioning
M82 ;set extruder to absolute mode
M107 ;start with the fan off
G28 X0 Y0 ;move X/Y to min endstops
G1 F200 E-1 ;retract 1mm of feed stock
G29
G92 E0 ;zero the extruded length
G1 F200 E3 ;extrude 3mm of feed stock
G92 E0 ;zero the extruded length again
G1 F9000
M117 Printing...
;LAYER_COUNT:30
;LAYER:0
M107
G0 F3600 X-.12 Y-19.984 Z0.3
;TYPE:SKIRT
G1 F2100 X6.724 Y-19.782 E0.3416
G1 X6.978 Y-19.767 E0.35429
G1 X14.759 Y-19.041 E0.74417
G1 X15.047 Y-19.003 E0.75867
G1 X23.057 Y-17.664 E1.16383
G1 X23.462 Y-17.575 E1.18452
G1 X24.751 Y-17.219 E1.25124
G1 X25.116 Y-17.099 E1.2704
G1 X26.879 Y-16.424 E1.36459
G1 X27.279 Y-16.245 E1.38645
G1 X28.886 Y-15.418 E1.47662
G1 X29.269 Y-15.193 E1.49878
G1 X30.879 Y-14.124 E1.5952
G1 X31.239 Y-13.854 E1.61765
G1 X32.654 Y-12.665 E1.70985
G1 X32.939 Y-12.401 E1.72924
G1 X33.913 Y-11.406 E1.7987
G1 X34.164 Y-11.125 E1.8175
G1 X35.295 Y-9.728 E1.90717
G1 X35.552 Y-9.372 E1.92908
G1 X36.573 Y-7.782 E2.02335
G1 X36.796 Y-7.388 E2.04594
G1 X37.639 Y-5.676 E2.14114
G1 X37.793 Y-5.319 E2.16054
G1 X38.284 Y-4.015 E2.23006
G1 X38.405 Y-3.638 E2.24981
G1 X38.901 Y-1.783 E2.34561
G1 X39.002 Y-1.274 E2.3715
G1 X39.315 Y1.093 E2.49061
G1 X39.345 Y1.824 E2.52712
G1 X39.295 Y2.791 E2.57542
G1 X39.226 Y3.352 E2.60362
G1 X39.156 Y3.647 E2.61875
G1 X38.834 Y4.815 E2.67919
G1 X38.618 Y5.41 E2.71077
G1 X38.312 Y6.082 E2.74761
G1 X37.949 Y6.718 E2.78415
G1 X37.085 Y7.952 E2.8593
G1 X36.535 Y8.585 E2.90114
G1 X35.773 Y9.295 E2.9531
G1 X35.269 Y9.693 E2.98514
G1 X34.243 Y10.379 E3.04671
G1 X34.014 Y10.522 E3.06018
G1 X31.485 Y11.976 E3.20572
G1 X31.321 Y12.065 E3.21503
G1 X28.817 Y13.353 E3.35551
G1 X28.652 Y13.433 E3.36466
G1 X26.094 Y14.604 E3.50502
G1 X25.875 Y14.696 E3.51687
G1 X21.648 Y16.335 E3.74305
G1 X21.422 Y16.415 E3.75501
G1 X18.702 Y17.286 E3.8975
G1 X18.524 Y17.339 E3.90677
G1 X15.747 Y18.088 E4.05027
G1 X15.567 Y18.132 E4.05951
G1 X12.78 Y18.747 E4.2019
G1 X12.606 Y18.781 E4.21074
G1 X10.052 Y19.227 E4.34009
G1 X9.876 Y19.254 E4.34898
G1 X7.032 Y19.621 E4.49204
G1 X6.85 Y19.64 E4.50117
G1 X4.045 Y19.872 E4.64159
G1 X3.857 Y19.883 E4.65098
G1 X0.955 Y19.986 E4.79586
G1 X0.765 Y19.989 E4.80534
G1 X-2.306 Y19.952 E4.95856
G1 X-2.498 Y19.945 E4.96815
G1 X-5.343 Y19.774 E5.11034
G1 X-5.529 Y19.758 E5.11965
G1 X-8.364 Y19.454 E5.2619
G1 X-8.55 Y19.43 E5.27126
G1 X-11.444 Y18.982 E5.41736
G1 X-11.628 Y18.949 E5.42669
G1 X-14.417 Y18.383 E5.56867
G1 X-14.597 Y18.342 E5.57788
G1 X-17.35 Y17.649 E5.71951
G1 X-17.569 Y17.587 E5.73087
G1 X-21.557 Y16.339 E5.93934
G1 X-21.774 Y16.264 E5.9508
G1 X-24.506 Y15.233 E6.09648
G1 X-24.672 Y15.167 E6.10539
G1 X-27.025 Y14.157 E6.23314
G1 X-27.183 Y14.085 E6.2418
G1 X-29.705 Y12.87 E6.38147
G1 X-29.871 Y12.785 E6.39077
G1 X-32.456 Y11.388 E6.53737
G1 X-32.604 Y11.303 E6.54588
G1 X-34.346 Y10.263 E6.6471
G1 X-34.643 Y10.068 E6.66483
G1 X-35.678 Y9.318 E6.72859
G1 X-36.295 Y8.765 E6.76993
G1 X-37.165 Y7.805 E6.83457
G1 X-37.656 Y7.134 E6.87605
G1 X-38.294 Y6.04 E6.93923
G1 X-38.617 Y5.34 E6.97769
G1 X-38.984 Y4.286 E7.03337
G1 X-39.135 Y3.723 E7.06246
G1 X-39.25 Y3.122 E7.09298
G1 X-39.32 Y2.475 E7.12545
G1 X-39.343 Y1.595 E7.16937
G1 X-39.314 Y1.004 E7.19889
G1 X-39.097 Y-.77 E7.28805
G1 X-39.028 Y-1.167 E7.30816
G1 X-38.69 Y-2.661 E7.38458
G1 X-38.621 Y-2.926 E7.39824
G1 X-38.375 Y-3.747 E7.441
G1 X-38.286 Y-4.01 E7.45485
G1 X-37.793 Y-5.318 E7.52459
G1 X-37.637 Y-5.677 E7.54412
G1 X-36.785 Y-7.404 E7.64019
G1 X-36.562 Y-7.798 E7.66278
G1 X-35.548 Y-9.374 E7.75627
G1 X-35.296 Y-9.723 E7.77775
G1 X-34.164 Y-11.125 E7.86765
G1 X-33.826 Y-11.494 E7.89261
G1 X-32.136 Y-13.121 E8.00965
G1 X-31.803 Y-13.408 E8.03158
G1 X-30.723 Y-14.24 E8.0996
G1 X-30.406 Y-14.46 E8.11885
G1 X-28.804 Y-15.464 E8.21317
G1 X-28.356 Y-15.707 E8.2386
G1 X-26.185 Y-16.709 E8.35789
G1 X-25.77 Y-16.873 E8.38016
G1 X-24.482 Y-17.301 E8.44787
G1 X-24.175 Y-17.39 E8.46382
G1 X-22.9 Y-17.703 E8.52931
G1 X-22.601 Y-17.764 E8.54454
G1 X-15.472 Y-18.948 E8.90508
G1 X-15.221 Y-18.982 E8.91771
G1 X-8.398 Y-19.674 E9.25986
G1 X-8.144 Y-19.691 E9.27256
G1 X-.388 Y-19.983 E9.65978
G1 X-.12 Y-19.984 E9.67316
G0 F3600 X-.132 Y-19.584
G1 F2100 X6.712 Y-19.382 E10.01475
G1 X6.94 Y-19.368 E10.02615
G1 X14.721 Y-18.642 E10.41603
G1 X14.981 Y-18.609 E10.42911
G1 X22.991 Y-17.27 E10.83427
G1 X23.355 Y-17.189 E10.85288
G1 X24.644 Y-16.833 E10.91959
G1 X24.973 Y-16.725 E10.93687
G1 X26.736 Y-16.05 E11.03105
G1 X27.096 Y-15.889 E11.05073
G1 X28.703 Y-15.062 E11.14089
G1 X29.047 Y-14.86 E11.16079
G1 X30.657 Y-13.791 E11.25721
G1 X30.982 Y-13.548 E11.27746
G1 X32.397 Y-12.359 E11.36967
G1 X32.654 Y-12.121 E11.38714
G1 X33.628 Y-11.126 E11.45661
G1 X33.853 Y-10.873 E11.4735
G1 X34.984 Y-9.476 E11.56317
G1 X35.215 Y-9.156 E11.58286
G1 X36.236 Y-7.566 E11.67713
G1 X36.437 Y-7.211 E11.69749
G1 X37.28 Y-5.499 E11.79269
G1 X37.419 Y-5.178 E11.81014
G1 X37.91 Y-3.874 E11.87966
G1 X38.019 Y-3.535 E11.89743
G1 X38.515 Y-1.68 E11.99322
G1 X38.606 Y-1.222 E12.01652
G1 X38.919 Y1.145 E12.13564
G1 X38.945 Y1.803 E12.16849
G1 X38.895 Y2.77 E12.2168
G1 X38.771 Y3.541 E12.25576
G1 X38.449 Y4.709 E12.3162
G1 X38.254 Y5.244 E12.34461
G1 X37.948 Y5.916 E12.38145
G1 X37.621 Y6.489 E12.41437
G1 X36.757 Y7.723 E12.48952
G1 X36.262 Y8.292 E12.52715
G1 X35.5 Y9.002 E12.57911
G1 X35.047 Y9.361 E12.60795
G1 X34.021 Y10.047 E12.66952
G1 X33.814 Y10.175 E12.68166
G1 X31.285 Y11.629 E12.8272
G1 X31.138 Y11.709 E12.83555
G1 X28.634 Y12.997 E12.97603
G1 X28.485 Y13.069 E12.98429
G1 X25.927 Y14.24 E13.12465
G1 X25.73 Y14.324 E13.13533
G1 X21.503 Y15.963 E13.36151
G1 X21.3 Y16.035 E13.37226
G1 X18.58 Y16.906 E13.51475
G1 X18.419 Y16.953 E13.52312
G1 X15.642 Y17.702 E13.66661
G1 X15.481 Y17.741 E13.67488
G1 X12.694 Y18.356 E13.81727
G1 X12.537 Y18.387 E13.82525
G1 X9.983 Y18.833 E13.9546
G1 X9.825 Y18.857 E13.96257
G1 X6.981 Y19.224 E14.10564
G1 X6.817 Y19.242 E14.11387
G1 X4.012 Y19.474 E14.25429
G1 X3.843 Y19.484 E14.26273
G1 X0.941 Y19.587 E14.40761
G1 X0.77 Y19.589 E14.41614
G1 X-2.301 Y19.552 E14.56936
G1 X-2.474 Y19.546 E14.578
G1 X-5.319 Y19.375 E14.72019
G1 X-5.487 Y19.36 E14.72861
G1 X-8.322 Y19.056 E14.87086
G1 X-8.489 Y19.035 E14.87925
G1 X-11.383 Y18.587 E15.02535
G1 X-11.548 Y18.557 E15.03372
G1 X-14.337 Y17.991 E15.1757
G1 X-14.5 Y17.954 E15.18404
G1 X-17.253 Y17.261 E15.32567
G1 X-17.449 Y17.206 E15.33583
G1 X-21.437 Y15.958 E15.54431
G1 X-21.633 Y15.89 E15.55466
G1 X-24.365 Y14.859 E15.70034
G1 X-24.514 Y14.799 E15.70835
G1 X-26.867 Y13.789 E15.8361
G1 X-27.009 Y13.724 E15.84389
G1 X-29.531 Y12.509 E15.98356
G1 X-29.681 Y12.433 E15.99195
G1 X-32.266 Y11.036 E16.13854
G1 X-32.399 Y10.96 E16.14618
G1 X-34.141 Y9.92 E16.2474
G1 X-34.408 Y9.744 E16.26336
G1 X-35.443 Y8.994 E16.32712
G1 X-35.999 Y8.496 E16.36436
G1 X-36.869 Y7.536 E16.429
G1 X-37.311 Y6.933 E16.4663
G1 X-37.949 Y5.839 E16.52948
G1 X-38.239 Y5.209 E16.56408
G1 X-38.606 Y4.155 E16.61976
G1 X-38.742 Y3.648 E16.64595
G1 X-38.857 Y3.047 E16.67648
G1 X-38.92 Y2.464 E16.70574
G1 X-38.943 Y1.584 E16.74965
G1 X-38.917 Y1.053 E16.77618
G1 X-38.7 Y-.721 E16.86534
G1 X-38.638 Y-1.078 E16.88342
G1 X-38.3 Y-2.572 E16.95984
G1 X-38.238 Y-2.811 E16.97216
G1 X-37.992 Y-3.632 E17.01492
G1 X-37.912 Y-3.869 E17.0274
G1 X-37.419 Y-5.177 E17.09713
G1 X-37.278 Y-5.5 E17.11472
G1 X-36.426 Y-7.227 E17.21079
G1 X-36.225 Y-7.582 E17.23115
G1 X-35.211 Y-9.158 E17.32464
G1 X-34.985 Y-9.472 E17.34394
G1 X-33.853 Y-10.874 E17.43384
G1 X-33.549 Y-11.205 E17.45626
G1 X-31.859 Y-12.832 E17.5733
G1 X-31.559 Y-13.091 E17.59307
G1 X-30.479 Y-13.923 E17.66109
G1 X-30.194 Y-14.121 E17.6784
G1 X-28.592 Y-15.125 E17.77273
G1 X-28.189 Y-15.344 E17.79561
G1 X-26.018 Y-16.346 E17.9149
G1 X-25.644 Y-16.493 E17.93495
G1 X-24.356 Y-16.921 E18.00266
G1 X-24.079 Y-17.001 E18.01705
G1 X-22.804 Y-17.314 E18.08255
G1 X-22.536 Y-17.369 E18.09619
G1 X-15.407 Y-18.553 E18.45673
G1 X-15.18 Y-18.584 E18.46816
G1 X-8.357 Y-19.276 E18.81031
G1 X-8.129 Y-19.291 E18.82171
G1 X-.373 Y-19.583 E19.20893
G1 X-.132 Y-19.584 E19.22096
G0 F3600 X-.144 Y-19.185
G1 F2100 X6.7 Y-18.983 E19.56255
G1 X6.903 Y-18.97 E19.5727
G1 X14.684 Y-18.244 E19.96258
G1 X14.915 Y-18.214 E19.97421
G1 X22.925 Y-16.875 E20.37937
G1 X23.249 Y-16.804 E20.39592
G1 X24.538 Y-16.448 E20.46264
G1 X24.83 Y-16.351 E20.47799
G1 X26.593 Y-15.676 E20.57217
G1 X26.913 Y-15.533 E20.58966
G1 X28.52 Y-14.706 E20.67982
G1 X28.826 Y-14.527 E20.69751
G1 X30.436 Y-13.458 E20.79393
G1 X30.725 Y-13.242 E20.81193
G1 X32.14 Y-12.053 E20.90413
G1 X32.368 Y-11.841 E20.91967
G1 X33.342 Y-10.846 E20.98913
G1 X33.542 Y-10.622 E21.00411
G1 X34.673 Y-9.225 E21.09379
G1 X34.879 Y-8.94 E21.11133
G1 X35.9 Y-7.35 E21.2056
G1 X36.078 Y-7.035 E21.22366
G1 X36.921 Y-5.323 E21.31886
G1 X37.045 Y-5.037 E21.33441
G1 X37.536 Y-3.733 E21.40393
G1 X37.632 Y-3.432 E21.41969
G1 X38.128 Y-1.577 E21.51549
G1 X38.209 Y-1.169 E21.53624
G1 X38.522 Y1.198 E21.65536
G1 X38.546 Y1.782 E21.68452
G1 X38.496 Y2.749 E21.73283
G1 X38.385 Y3.434 E21.76745
G1 X38.063 Y4.602 E21.82789
G1 X37.89 Y5.078 E21.85316
G1 X37.584 Y5.75 E21.89
G1 X37.293 Y6.259 E21.91925
G1 X36.429 Y7.493 E21.99441
G1 X35.989 Y7.999 E22.02786
G1 X35.227 Y8.709 E22.07982
G1 X34.825 Y9.028 E22.10542
G1 X33.799 Y9.714 E22.167
G1 X33.615 Y9.828 E22.1778
G1 X31.086 Y11.282 E22.32334
G1 X30.955 Y11.354 E22.33079
G1 X28.451 Y12.642 E22.47128
G1 X28.319 Y12.706 E22.4786
G1 X25.761 Y13.877 E22.61895
G1 X25.586 Y13.951 E22.62843
G1 X21.359 Y15.59 E22.85462
G1 X21.178 Y15.654 E22.86419
G1 X18.458 Y16.525 E23.00668
G1 X18.315 Y16.567 E23.01412
G1 X15.538 Y17.316 E23.15761
G1 X15.395 Y17.351 E23.16496
G1 X12.608 Y17.966 E23.30735
G1 X12.468 Y17.993 E23.31446
G1 X9.914 Y18.439 E23.44381
G1 X9.774 Y18.461 E23.45088
G1 X6.93 Y18.828 E23.59394
G1 X6.784 Y18.843 E23.60127
G1 X3.979 Y19.075 E23.74169
G1 X3.829 Y19.084 E23.74918
G1 X0.927 Y19.187 E23.89406
G1 X0.774 Y19.189 E23.90169
G1 X-2.297 Y19.152 E24.05491
G1 X-2.45 Y19.146 E24.06255
G1 X-5.295 Y18.975 E24.20475
G1 X-5.444 Y18.963 E24.2122
G1 X-8.279 Y18.659 E24.35445
G1 X-8.428 Y18.639 E24.36195
G1 X-11.322 Y18.191 E24.50806
G1 X-11.468 Y18.165 E24.51545
G1 X-14.257 Y17.599 E24.65743
G1 X-14.402 Y17.566 E24.66485
G1 X-17.155 Y16.873 E24.80649
G1 X-17.33 Y16.824 E24.81555
G1 X-21.318 Y15.576 E25.02403
G1 X-21.492 Y15.516 E25.03321
G1 X-24.224 Y14.485 E25.17889
G1 X-24.356 Y14.432 E25.18599
G1 X-26.709 Y13.422 E25.31374
G1 X-26.836 Y13.364 E25.32071
G1 X-29.358 Y12.149 E25.46037
G1 X-29.49 Y12.081 E25.46778
G1 X-32.075 Y10.684 E25.61437
G1 X-32.194 Y10.617 E25.62118
G1 X-33.936 Y9.577 E25.7224
G1 X-34.174 Y9.42 E25.73663
G1 X-35.209 Y8.67 E25.8004
G1 X-35.702 Y8.228 E25.83343
G1 X-36.572 Y7.268 E25.89807
G1 X-36.965 Y6.731 E25.93127
G1 X-37.603 Y5.637 E25.99445
G1 X-37.861 Y5.077 E26.02521
G1 X-38.228 Y4.023 E26.08089
G1 X-38.349 Y3.572 E26.10419
G1 X-38.464 Y2.971 E26.13471
G1 X-38.52 Y2.454 E26.16066
G1 X-38.543 Y1.574 E26.20458
G1 X-38.52 Y1.101 E26.2282
G1 X-38.303 Y-.673 E26.31737
G1 X-38.248 Y-.99 E26.33342
G1 X-37.91 Y-2.484 E26.40984
G1 X-37.854 Y-2.696 E26.42078
G1 X-37.608 Y-3.517 E26.46354
G1 X-37.537 Y-3.728 E26.47464
G1 X-37.044 Y-5.036 E26.54438
G1 X-36.92 Y-5.323 E26.55998
G1 X-36.068 Y-7.05 E26.65605
G1 X-35.889 Y-7.365 E26.67413
G1 X-34.875 Y-8.941 E26.76763
G1 X-34.674 Y-9.22 E26.78478
G1 X-33.542 Y-10.622 E26.87468
G1 X-33.271 Y-10.917 E26.89467
G1 X-31.581 Y-12.544 E27.0117
G1 X-31.315 Y-12.774 E27.02925
G1 X-30.235 Y-13.606 E27.09726
G1 X-29.981 Y-13.783 E27.11271
G1 X-28.379 Y-14.787 E27.20703
G1 X-28.021 Y-14.98 E27.22732
G1 X-25.85 Y-15.982 E27.34661
G1 X-25.518 Y-16.114 E27.36444
G1 X-24.23 Y-16.542 E27.43215
G1 X-23.984 Y-16.613 E27.44493
G1 X-22.709 Y-16.926 E27.51042
G1 X-22.47 Y-16.975 E27.5226
G1 X-15.341 Y-18.159 E27.88314
G1 X-15.14 Y-18.186 E27.89325
G1 X-8.317 Y-18.878 E28.2354
G1 X-8.114 Y-18.892 E28.24555
G1 X-.358 Y-19.184 E28.63278
G1 X-.144 Y-19.185 E28.64345
G1 F2100 E23.64345
G1 Z1.3
G0 F3600 X0.00 Y-15 Z1.3
;TYPE:WALL-INNER
G1 Z0.3
G1 F2100 E28.64345
G1 X7.27 Y-14.76 E29.00976
G1 X14.48 Y-14.051 E29.37121
G1 X21.665 Y-12.864 E29.73453
G1 X22.525 Y-12.668 E29.77853
G1 X23.332 Y-12.436 E29.82043
G1 X24.207 Y-12.13 E29.86667
G1 X24.999 Y-11.804 E29.9094
G1 X25.785 Y-11.429 E29.95285
G1 X26.583 Y-10.99 E29.99829
G1 X27.323 Y-10.528 E30.04181
G1 X28.014 Y-10.042 E30.08396
G1 X28.739 Y-9.469 E30.13006
G1 X29.39 Y-8.892 E30.17346
G1 X29.999 Y-8.29 E30.21618
G1 X30.611 Y-7.612 E30.26175
G1 X31.143 Y-6.951 E30.30408
G1 X31.677 Y-6.21 E30.34965
G1 X32.132 Y-5.497 E30.39185
G1 X32.586 Y-4.691 E30.438
G1 X32.961 Y-3.927 E30.48046
G1 X33.296 Y-3.139 E30.52318
G1 X33.609 Y-2.27 E30.56926
G1 X33.85 Y-1.459 E30.61147
G1 X34.053 Y-.614 E30.65483
G1 X34.219 Y0.306 E30.70147
G1 X34.322 Y1.143 E30.74354
G1 X34.376 Y1.996 E30.78618
G1 X34.334 Y2.351 E30.80402
G1 X34.254 Y2.748 E30.82422
G1 X34.203 Y2.946 E30.83442
G1 X34.086 Y3.307 E30.85335
G1 X34.002 Y3.522 E30.86487
G1 X33.84 Y3.873 E30.88416
G1 X33.629 Y4.25 E30.90571
G1 X33.422 Y4.561 E30.92435
G1 X33.155 Y4.9 E30.94588
G1 X33.024 Y5.047 E30.9557
G1 X32.749 Y5.321 E30.97507
G1 X32.417 Y5.605 E30.99687
G1 X32.107 Y5.826 E31.01586
G1 X31.79 Y6.025 E31.03453
G1 X30.767 Y6.642 E31.09413
G1 X29.548 Y7.34 E31.16421
G1 X28.302 Y8.014 E31.23489
G1 X27.069 Y8.646 E31.30401
G1 X25.79 Y9.264 E31.37488
G1 X24.53 Y9.836 E31.44392
G1 X23.224 Y10.394 E31.51477
G1 X21.935 Y10.91 E31.58404
G1 X20.623 Y11.4 E31.65392
G1 X19.277 Y11.869 E31.72503
G1 X17.965 Y12.29 E31.79377
G1 X16.598 Y12.695 E31.8649
G1 X15.25 Y13.062 E31.9346
G1 X13.884 Y13.4 E32.00481
G1 X12.537 Y13.699 E32.07364
G1 X11.162 Y13.971 E32.14357
G1 X9.762 Y14.215 E32.21447
G1 X8.39 Y14.423 E32.2837
G1 X6.991 Y14.6 E32.35406
G1 X5.603 Y14.743 E32.42367
G1 X4.191 Y14.857 E32.49434
G1 X2.804 Y14.936 E32.56365
G1 X1.384 Y14.984 E32.63454
G1 X-.41 Y15 E32.72404
G1 X-1.396 Y14.982 E32.77324
G1 X-2.815 Y14.931 E32.84408
G1 X-4.2 Y14.851 E32.9133
G1 X-5.612 Y14.735 E32.98398
G1 X-6.998 Y14.589 E33.05351
G1 X-8.398 Y14.41 E33.12393
G1 X-9.772 Y14.2 E33.19327
G1 X-11.171 Y13.954 E33.26414
G1 X-12.522 Y13.685 E33.33286
G1 X-13.913 Y13.373 E33.40398
G1 X-15.252 Y13.04 E33.47282
G1 X-16.623 Y12.666 E33.54372
G1 X-17.954 Y12.27 E33.613
G1 X-19.302 Y11.832 E33.68371
G1 X-20.629 Y11.368 E33.75385
G1 X-21.931 Y10.88 E33.82322
G1 X-23.227 Y10.36 E33.89289
G1 X-24.532 Y9.799 E33.96375
G1 X-25.799 Y9.22 E34.03325
G1 X-27.061 Y8.608 E34.10323
G1 X-28.312 Y7.966 E34.17338
G1 X-29.532 Y7.302 E34.24268
G1 X-30.766 Y6.595 E34.31363
G1 X-31.943 Y5.883 E34.38226
G1 X-32.28 Y5.656 E34.40253
G1 X-32.62 Y5.385 E34.42422
G1 X-32.738 Y5.279 E34.43213
G1 X-33.044 Y4.971 E34.45379
G1 X-33.159 Y4.841 E34.46245
G1 X-33.422 Y4.506 E34.4837
G1 X-33.648 Y4.166 E34.50407
G1 X-33.741 Y4.009 E34.51317
G1 X-33.927 Y3.643 E34.53366
G1 X-34.081 Y3.271 E34.55374
G1 X-34.201 Y2.905 E34.57296
G1 X-34.261 Y2.679 E34.58463
G1 X-34.301 Y2.495 E34.59402
G1 X-34.366 Y2.091 E34.61443
G1 X-34.379 Y1.974 E34.62031
G1 X-34.322 Y1.134 E34.66231
G1 X-34.219 Y0.306 E34.70394
G1 X-34.053 Y-.614 E34.75058
G1 X-33.85 Y-1.459 E34.79394
G1 X-33.601 Y-2.296 E34.8375
G1 X-33.316 Y-3.088 E34.8795
G1 X-32.96 Y-3.926 E34.92492
G1 X-32.546 Y-4.765 E34.9716
G1 X-32.123 Y-5.512 E35.01443
G1 X-31.661 Y-6.235 E35.05723
G1 X-31.145 Y-6.947 E35.1011
G1 X-30.563 Y-7.667 E35.14729
G1 X-29.999 Y-8.29 E35.18922
G1 X-29.39 Y-8.892 E35.23194
G1 X-28.739 Y-9.469 E35.27534
G1 X-28.014 Y-10.042 E35.32144
G1 X-27.323 Y-10.528 E35.36359
G1 X-26.583 Y-10.99 E35.40711
G1 X-25.785 Y-11.429 E35.45255
G1 X-24.999 Y-11.804 E35.496
G1 X-24.207 Y-12.13 E35.53873
G1 X-23.332 Y-12.436 E35.58497
G1 X-22.525 Y-12.668 E35.62687
G1 X-21.665 Y-12.864 E35.67087
G1 X-14.48 Y-14.051 E36.03419
G1 X-7.27 Y-14.76 E36.39564
G1 X0.00 Y-15 E36.75853
G0 F3600 X-21.576 Y-7.854
G1 F2100 X-21.825 Y-8.461 E36.79127
G1 X-22.226 Y-8.98 E36.82399
G1 X-22.745 Y-9.378 E36.85662
